X: 1
T:Poisoned Dwarf
M:C
L:1/8
Q:80
C:Scott MacAulay, 3rd part, David Williams
S:Reel
K:HP
[| {gcd}c2{g}eA{gAGAG}A2{g}eA|
{g}ce{A}ec{g}fe{g}fa|
{gcd}c2{g}eA{gAGAG}A2{g}eA|  !
{g}ce{A}ec{g}dB{g}GB| |
{gcd}c2{g}eA{gAGAG}A2{g}eA|
{g}ce{A}ec{g}fe{g}fa|  !
{gcd}c2{g}eA{gAGAG}A2{g}eA|
{g}ce{A}ec{g}fe{g}dB|] |:
Aa{g}aga{g}a{g}af|  !
{g}ea{g}agae{g}fa|
Aa{g}aga{g}a{g}af|
{g}ec{g}Acfe{g}dB:| |:  !
{g}A2a{g}ag2a{g}a|
{g}afa{g}afe2a|
{g}A2a{g}ag2a{g}a|  !
{g}afa{g}aga3:|
